icons/core/share-ios.svg

<svg width="32" height="32" viewBox="0 0 32 32" fill="none" xmlns="http://www.w3.org/2000/svg">
<path fill-rule="evenodd" clip-rule="evenodd" d="M16.7074 2.29289L16.0003 1.58578L15.2931 2.29289L10.2929 7.29313L11.7071 8.70735L15.0002 5.41422V20.0002H17.0002V5.4142L20.2934 8.70735L21.7076 7.29313L16.7074 2.29289ZM6 13C6 11.8954 6.89543 11 8 11H12V13H8V28H24V13H20V11H24C25.1046 11 26 11.8954 26 13V28C26 29.1046 25.1046 30 24 30H8C6.89543 30 6 29.1046 6 28V13Z" fill="black"/>
</svg>

<svg width="32" height="32" viewBox="0 0 32 32" xmlns="http://www.w3.org/2000/svg">
    <path fill-rule="evenodd" d="M16.707 2.293L16 1.586l-.707.707-5 5 1.414 1.414L15 5.414V20h2V5.414l3.293 3.293 1.415-1.414-5-5zM6 13a2 2 0 012-2h4v2H8v15h16V13h-4v-2h4a2 2 0 012 2v15a2 2 0 01-2 2H8a2 2 0 01-2-2V13z"/>
</svg>
